X:19040
T:Sandy Boys
R:Reel
C:Trad.
O:USA
Z:Paul Hardy's Session Tunebook 2015 (see www.paulhardy.net). Creative Commons cc by-nc-sa licenced.
M:2/2
L:1/4
Q:1/2=110
K:Amix
"A"ag eg|e/d/c Aa-|ag eg|a>b aa-|ag eg|e/d/c AA/B/|ce "E"e/d/c|"A"A2A2:|
|:"A"e2 e2|d/A/c AA/B/|ce "D"dA/B/|"A"ce d/c/A|e2 e2|d/A/c AA/B/|ce "E"e/d/c|"A"A2 A2:|

